icons/KoraCustom/apps/scalable/ch.fuchsnet.plasma.hoppla-sa.svg

<svg xmlns="http://www.w3.org/2000/svg" width="48" height="48" version="1.1">
 <circle style="opacity:0.2" cx="24" cy="25" r="20"/>
 <path style="fill:#ff343e" d="M 12,8.0253906 A 20,20 0 0 0 4,24 20,20 0 0 0 12,39.96875 Z"/>
 <path style="fill:#ff881f" d="M 20,4.4257812 A 20,20 0 0 0 12,8.0253906 V 39.96875 a 20,20 0 0 0 8,3.625 z"/>
 <path style="fill:#fff023" d="M 24,4 A 20,20 0 0 0 20,4.4257812 V 43.59375 A 20,20 0 0 0 24,44 20,20 0 0 0 28,43.574219 V 4.40625 A 20,20 0 0 0 24,4 Z"/>
 <path style="fill:#87c32a" d="m 28,4.40625 v 39.167969 a 20,20 0 0 0 8,-3.59961 V 8.03125 a 20,20 0 0 0 -8,-3.625 z"/>
 <path style="fill:#0791ff" d="M 36,8.03125 V 39.974609 A 20,20 0 0 0 44,24 20,20 0 0 0 36,8.03125 Z"/>
 <circle style="fill:#0b5ed7" cx="24" cy="24" r="17"/>
 <path style="opacity:0.2" d="m 24,11 a 14,14 0 0 0 -7.185547,2.001953 l 0.373047,2.923828 c 0.171362,0.96231 0.59853,1.54162 1.703125,1.712891 l 4.175781,0.537109 v 0.300781 l -3.880859,0.492188 c -1.144567,0.208823 -1.768526,0.333248 -2.017578,1.955078 l -0.396485,2.988281 c 1.977083,-0.280374 3.943618,-1.248738 6.013672,-2.302734 C 25.240554,20.359177 27.842287,19 30.835938,19 c 2.567465,0 4.880379,0.85827 6.441406,1.615234 A 14,14 0 0 0 24,11 Z m -3.46875,0.798828 h 0.134766 l 0.224609,1.769531 c 0.07286,0.409173 0.254936,0.655696 0.724609,0.728516 l 1.775391,0.228516 v 0.126953 l -1.650391,0.208984 c -0.486669,0.08879 -0.751525,0.142431 -0.857422,0.832031 l -0.224609,1.691407 h -0.125 L 20.326172,15.736328 C 20.267769,15.203397 20.06112,14.943004 19.5,14.871094 l -1.699219,-0.21875 v -0.126953 l 1.765625,-0.238282 c 0.470528,-0.07817 0.640995,-0.25276 0.734375,-0.6875 z M 16.128906,13.4375 a 14,14 0 0 0 -4.179687,4.464844 l 2.125,-0.28711 C 15.180827,17.431379 15.579207,17.022441 15.798828,16 Z m -4.605468,5.244141 a 14,14 0 0 0 -1.41211,4.654297 c 0.464445,0.0771 0.487368,0.08768 1.06836,0.175781 C 12.812387,23.759312 14.75025,24 15.666016,24 c 0.187976,0 0.375008,-0.01919 0.5625,-0.0332 L 15.857422,21.023438 C 15.720066,19.770067 15.23568,19.157418 13.916016,18.988281 Z M 30.835938,21 C 28.463469,21 26.14798,22.140823 23.693359,23.390625 21.238739,24.640427 18.645638,26 15.666016,26 c -1.226904,0 -3.122661,-0.259312 -4.78711,-0.511719 -0.47218,-0.0716 -0.464396,-0.07684 -0.867187,-0.142578 a 14,14 0 0 0 0.1875,2.003906 c 0.438527,0.07237 0.447204,0.08124 0.980469,0.16211 C 12.812386,27.759312 14.75025,28 15.666016,28 c 2.354743,0 4.663743,-1.140427 7.11914,-2.390625 C 25.240554,24.359177 27.842287,23 30.835938,23 33.834712,23 36.501688,24.167835 38,24.978516 a 14,14 0 0 0 -0.130859,-1.75586 C 37.225966,22.815701 34.187999,21 30.835938,21 Z m 0,4 C 28.463469,25 26.14798,26.140823 23.693359,27.390625 21.238739,28.640427 18.645638,30 15.666016,30 c -1.226904,0 -3.122661,-0.259312 -4.78711,-0.511719 -0.07021,-0.01065 -0.05975,-0.01086 -0.128906,-0.02148 A 14,14 0 0 0 24,39 14,14 0 0 0 31.199219,36.990234 L 30.84375,34.169922 c -0.137356,-1.253371 -0.621742,-1.866019 -1.941406,-2.035156 l -3.998047,-0.511719 v -0.300781 l 4.154297,-0.560547 c 1.106608,-0.183855 1.506941,-0.592794 1.726562,-1.615235 l 0.529297,-4.126953 C 31.155349,25.01123 30.996075,25 30.835938,25 Z m 0.822265,0.04102 0.515625,4.029296 c 0.171362,0.962313 0.596577,1.543573 1.701172,1.714844 l 2.691406,0.345703 A 14,14 0 0 0 37.810547,27.1875 c -0.72859,-0.45035 -3.238426,-1.891291 -6.152344,-2.146484 z m 4.539063,6.816406 -2.027344,0.257812 c -1.144567,0.208823 -1.768526,0.333249 -2.017578,1.955078 l -0.333985,2.529297 a 14,14 0 0 0 4.378907,-4.742187 z m -8.730469,0.910156 h 0.134765 l 0.22461,1.769531 c 0.07286,0.409173 0.254936,0.655696 0.724609,0.728516 l 1.775391,0.228516 v 0.126953 l -1.650391,0.208984 c -0.486669,0.08879 -0.751526,0.142431 -0.857422,0.832031 L 27.59375,38.35352 h -0.125 l -0.207031,-1.648438 c -0.0584,-0.532931 -0.265052,-0.793324 -0.826172,-0.865234 l -1.699219,-0.21875 v -0.126953 l 1.765625,-0.238282 c 0.470528,-0.07818 0.640995,-0.25276 0.734375,-0.6875 z"/>
 <path style="fill:#ffffff" d="m 24,10 a 14,14 0 0 0 -7.185547,2.001953 l 0.373047,2.923828 c 0.171362,0.96231 0.59853,1.54162 1.703125,1.712891 l 4.175781,0.537109 v 0.300781 l -3.880859,0.492188 c -1.144567,0.208823 -1.768526,0.333248 -2.017578,1.955078 l -0.396485,2.988281 c 1.977083,-0.280374 3.943618,-1.248738 6.013672,-2.302734 C 25.240554,19.359177 27.842287,18 30.835938,18 c 2.567465,0 4.880379,0.85827 6.441406,1.615234 A 14,14 0 0 0 24,10 Z m -3.46875,0.798828 h 0.134766 l 0.224609,1.769531 c 0.07286,0.409173 0.254936,0.655696 0.724609,0.728516 l 1.775391,0.228516 v 0.126953 l -1.650391,0.208984 c -0.486669,0.08879 -0.751525,0.142431 -0.857422,0.832031 l -0.224609,1.691407 h -0.125 L 20.326172,14.736328 C 20.267769,14.203397 20.06112,13.943004 19.5,13.871094 l -1.699219,-0.21875 v -0.126953 l 1.765625,-0.238282 c 0.470528,-0.07817 0.640995,-0.25276 0.734375,-0.6875 z M 16.128906,12.4375 a 14,14 0 0 0 -4.179687,4.464844 l 2.125,-0.28711 C 15.180827,16.431379 15.579207,16.022441 15.798828,15 Z m -4.605468,5.244141 a 14,14 0 0 0 -1.41211,4.654297 c 0.464445,0.0771 0.487368,0.08768 1.06836,0.175781 C 12.812387,22.759312 14.75025,23 15.666016,23 c 0.187976,0 0.375008,-0.01919 0.5625,-0.0332 L 15.857422,20.023438 C 15.720066,18.770067 15.23568,18.157418 13.916016,17.988281 Z M 30.835938,20 C 28.463469,20 26.14798,21.140823 23.693359,22.390625 21.238739,23.640427 18.645638,25 15.666016,25 c -1.226904,0 -3.122661,-0.259312 -4.78711,-0.511719 -0.47218,-0.0716 -0.464396,-0.07684 -0.867187,-0.142578 a 14,14 0 0 0 0.1875,2.003906 c 0.438527,0.07237 0.447204,0.08124 0.980469,0.16211 C 12.812386,26.759312 14.75025,27 15.666016,27 c 2.354743,0 4.663743,-1.140427 7.11914,-2.390625 C 25.240554,23.359177 27.842287,22 30.835938,22 33.834712,22 36.501688,23.167835 38,23.978516 a 14,14 0 0 0 -0.130859,-1.75586 C 37.225966,21.815701 34.187999,20 30.835938,20 Z m 0,4 C 28.463469,24 26.14798,25.140823 23.693359,26.390625 21.238739,27.640427 18.645638,29 15.666016,29 c -1.226904,0 -3.122661,-0.259312 -4.78711,-0.511719 -0.07021,-0.01065 -0.05975,-0.01086 -0.128906,-0.02148 A 14,14 0 0 0 24,38 14,14 0 0 0 31.199219,35.990234 L 30.84375,33.169922 c -0.137356,-1.253371 -0.621742,-1.866019 -1.941406,-2.035156 l -3.998047,-0.511719 v -0.300781 l 4.154297,-0.560547 c 1.106608,-0.183855 1.506941,-0.592794 1.726562,-1.615235 l 0.529297,-4.126953 C 31.155349,24.01123 30.996075,24 30.835938,24 Z m 0.822265,0.04102 0.515625,4.029296 c 0.171362,0.962313 0.596577,1.543573 1.701172,1.714844 l 2.691406,0.345703 A 14,14 0 0 0 37.810547,26.1875 c -0.72859,-0.45035 -3.238426,-1.891291 -6.152344,-2.146484 z m 4.539063,6.816406 -2.027344,0.257812 c -1.144567,0.208823 -1.768526,0.333249 -2.017578,1.955078 l -0.333985,2.529297 a 14,14 0 0 0 4.378907,-4.742187 z m -8.730469,0.910156 h 0.134765 l 0.22461,1.769531 c 0.07286,0.409173 0.254936,0.655696 0.724609,0.728516 l 1.775391,0.228516 v 0.126953 l -1.650391,0.208984 c -0.486669,0.08879 -0.751526,0.142431 -0.857422,0.832031 L 27.59375,37.35352 h -0.125 l -0.207031,-1.648438 c -0.0584,-0.532931 -0.265052,-0.793324 -0.826172,-0.865234 l -1.699219,-0.21875 v -0.126953 l 1.765625,-0.238282 c 0.470528,-0.07818 0.640995,-0.25276 0.734375,-0.6875 z"/>
 <path style="opacity:0.2;fill:#ffffff" d="M 24,4 A 20,20 0 0 0 4,24 20,20 0 0 0 4.0215,24.582 20,20 0 0 1 24,5 20,20 0 0 1 43.979,24.418 20,20 0 0 0 44,24 20,20 0 0 0 24,4 Z"/>
</svg>

<svg clip-rule="evenodd" fill-rule="evenodd" stroke-linejoin="round" stroke-miterlimit="2" viewBox="0 0 48 48" xmlns="http://www.w3.org/2000/svg">
 <g transform="matrix(1.1382 0 0 1.1382 -3.3168 -3.3168)" fill-rule="nonzero">
  <path d="m12 8.025c-5.025 3.769-7.992 9.694-8 15.975.01 6.279 2.976 12.201 8 15.969z" fill="#ff343e"/>
  <path d="m20 4.426c-2.9.593-5.633 1.822-8 3.599v31.944c2.365 1.786 5.098 3.024 8 3.625z" fill="#ff881f"/>
  <path d="m24 4c-1.344.007-2.684.15-4 .426v39.168c1.316.269 2.656.405 4 .406 1.344-.007 2.684-.15 4-.426v-39.168c-1.316-.269-2.656-.405-4-.406z" fill="#fff023"/>
  <path d="m28 4.406v39.168c2.9-.593 5.633-1.822 8-3.599v-31.944c-2.365-1.786-5.098-3.024-8-3.625z" fill="#87c32a"/>
  <path d="m36 8.031v31.944c5.025-3.769 7.992-9.694 8-15.975-.01-6.279-2.976-12.201-8-15.969z" fill="#0791ff"/>
 </g>
 <circle cx="24" cy="24" r="19.3494" fill="#0b5ed7" stroke-width="1.1382"/>
 <path transform="matrix(1.1382 0 0 1.1382 -3.3168 -3.3168)" d="m24 10c-2.532.005-5.016.697-7.186 2.002l.374 2.924c.171.962.598 1.541 1.703 1.713l4.175.537v.301l-3.88.492c-1.145.209-1.769.333-2.018 1.955l-.397 2.988c1.978-.28 3.944-1.249 6.014-2.303 2.456-1.25 5.057-2.609 8.051-2.609 2.567 0 4.88.858 6.441 1.615-1.885-5.717-7.257-9.607-13.277-9.615zm-3.469.799h.135l.225 1.769c.072.41.255.656.724.729l1.776.228v.127l-1.651.209c-.486.089-.751.143-.857.832l-.225 1.692h-.125l-.207-1.649c-.058-.533-.265-.793-.826-.865l-1.699-.219v-.127l1.765-.238c.471-.078.641-.253.735-.687zm-4.402 1.639c-1.705 1.162-3.133 2.686-4.18 4.464l2.125-.287c1.107-.184 1.505-.593 1.725-1.615zm-4.606 5.244c-.738 1.457-1.216 3.032-1.412 4.654.465.077.488.088 1.069.176 1.632.247 3.57.488 4.486.488.188 0 .375-.019.563-.033l-.372-2.944c-.137-1.253-.621-1.866-1.941-2.035zm19.313 2.318c-2.373 0-4.688 1.141-7.143 2.391-2.454 1.249-5.047 2.609-8.027 2.609-1.227 0-3.123-.259-4.787-.512-.472-.071-.464-.077-.867-.142.014.671.077 1.341.187 2.004.439.072.447.081.981.162 1.632.247 3.57.488 4.486.488 2.355 0 4.664-1.14 7.119-2.391 2.456-1.25 5.057-2.609 8.051-2.609 2.999 0 5.666 1.168 7.164 1.979-.007-.588-.05-1.174-.131-1.756-.643-.407-3.681-2.223-7.033-2.223zm0 4c-2.373 0-4.688 1.141-7.143 2.391-2.454 1.249-5.047 2.609-8.027 2.609-1.227 0-3.123-.259-4.787-.512-.07-.01-.06-.011-.129-.021 1.911 5.676 7.261 9.525 13.25 9.533 2.537-.005 5.026-.7 7.199-2.01l-.355-2.82c-.138-1.253-.622-1.866-1.942-2.035l-3.998-.512v-.301l4.155-.56c1.106-.184 1.507-.593 1.726-1.616l.529-4.126c-.159-.009-.318-.02-.478-.02zm.822.041.516 4.029c.171.963.596 1.544 1.701 1.715l2.691.346c.608-1.246 1.027-2.575 1.245-3.943-.729-.451-3.239-1.892-6.153-2.147zm4.539 6.816-2.027.258c-1.145.209-1.769.333-2.018 1.955l-.334 2.53c1.809-1.218 3.309-2.842 4.379-4.743zm-8.73.911h.135l.224 1.769c.073.409.255.656.725.729l1.775.228v.127l-1.65.209c-.487.089-.752.143-.858.832l-.224 1.692h-.125l-.207-1.649c-.059-.533-.265-.793-.826-.865l-1.7-.219v-.127l1.766-.238c.47-.078.641-.253.734-.688z" fill="#fff" fill-rule="nonzero"/>
</svg>
